X:1
T:Headin' For Halifax
M:3/4
L:1/4
K:D
 D3| E2 z/2 D/2| D F A| d- c B| A F3/2 G/2|F/2-E/2 E D| E F3/2 D/2|\
 E3| D/2 D/2- D d| c/2 B/2- B z/2 A/2| B A G| AF/2-E/2-E/2 D/2| E F E|\
 D F3/2 E/2| D3| z| F A| B/2 B/2- B B| B/2A/2 F z/2 A/2| B d3/2 c/2|\
 B2 c/2B/2| A A| A| A2 A/2A/2| A c/2 c/2- c|B/2-A/2 A A/2A/2| B/2 B/2- B B|\
 B3/2 B/2 B| B d c| B2 F/2A/2| B2 B/2B/2| A3/2 G/2 F| E3| z z E| D F D|\
 E2 z/2 D/2| D F A| d- c B| A F3/2 G/2| F/2 E/2- E D/2D/2| E F3/2 D/2|\
 E3| D/2 D/2- D d| c/2 B/2- B z/2 A/2| B A G| AF/2-E/2-E/2-D/2| E F E|\
 D F3/2 E/2| D3| z2 D| E F E| D F3/2 E/2| D3-| D z2|
